!!!!SEGMENT: pl-cz--i-59_kurpinski-karol-kazimierz--ojcze-nasz.krn
!!!cenid: 18xx:270
!!!COM: Kurpiński, Karol Kazimierz
!!!COM-rismid: pe30018952
!!!CDT: 1785/03/06-1857/09/18
!!!CNT: Polish
!!!OTL: Ojcze nasz
!!!PDT: 1834
!!!AGN: Sacred
!!!SMS-siglum: PL-CZ
!!!SMS-shelfmark: I-59
!!!SMS-shelfwork: W
!!!NIFC-rismid:
!!!URL-scan: http://repozytorium.nifc.pl/skany/pl-cz-nut--i-59
!!!ONB-nifc:
!!!key:
**kern	**dynam	**kern	**dynam	**kern	**dynam	**kern	**text	**dynam	**kern	**text	**dynam	**kern	**text	**dynam	**kern	**dynam	**kern	**dynam	**kern	**dynam	**kern	**dynam
*part10	*part10	*part9	*part9	*part8	*part8	*part7	*part7	*part7	*part6	*part6	*part6	*part5	*part5	*part5	*part4	*part4	*part3	*part3	*part2	*part2	*part1	*part1
*staff10	*	*staff9	*	*staff8	*	*staff7	*staff7	*	*staff6	*staff6	*	*staff5	*staff5	*	*staff4	*	*staff3	*	*staff2	*	*staff1	*
*Ibass	*	*Ivioln	*	*Ivioln	*	*Ibass	*	*	*Itenor	*	*	*Ivox	*	*	*Icor	*	*Icor	*	*Iclars	*	*Iclars	*
*I"Basso	*	*I"Violino 2do	*	*I"Violino 1mo	*	*I"Basso	*	*	*I"Tenore	*	*	*I"Canto	*	*	*I"Corno 2do in Dis	*	*I"Corno 1mo in Dis	*	*I"Clarinetto 2do in B. Mutta	*	*I"Clarinetto 1mo in B. Muta	*
*I'C-b.	*	*I'V-no 2	*	*I'V-no 1	*	*I'B	*	*	*I'T	*	*	*I'C	*	*	*I'C. in F	*	*I'C. 1 in Dis	*	*I'Cl 2 in B♭	*	*I'Cl 1 in B♭	*
*group4	*	*group3	*	*group3	*	*group2	*	*	*group2	*	*	*group2	*	*	*group1	*	*group1	*	*group1	*	*group1	*
*clefF4	*	*clefG2	*	*clefG2	*	*clefF4	*	*	*clefC4	*	*	*clefC1	*	*	*clefG2	*	*clefG2	*	*clefG2	*	*clefG2	*
*ITrd0c0	*	*	*	*	*	*	*	*	*	*	*	*	*	*	*ITrd5c9	*	*ITrd5c9	*	*ITrd1c2	*	*ITrd1c2	*
*k[b-e-a-]	*	*k[b-e-a-]	*	*k[b-e-a-]	*	*k[b-e-a-]	*	*	*k[b-e-a-]	*	*	*k[b-e-a-]	*	*	*k[b-e-a-]	*	*k[b-e-a-]	*	*k[b-e-a-]	*	*k[b-e-a-]	*
*E-:	*	*E-:	*	*E-:	*	*E-:	*	*	*E-:	*	*	*E-:	*	*	*E-:	*	*E-:	*	*E-:	*	*E-:	*
*M2/2	*	*M2/2	*	*M2/2	*	*M2/2	*	*	*M2/2	*	*	*M2/2	*	*	*M2/2	*	*M2/2	*	*M2/2	*	*M2/2	*
*met(c|)	*	*met(c|)	*	*met(c|)	*	*met(c|)	*	*	*met(c|)	*	*	*met(c|)	*	*	*met(c|)	*	*met(c|)	*	*met(c|)	*	*met(c|)	*
=1	=1	=1	=1	=1	=1	=1	=1	=1	=1	=1	=1	=1	=1	=1	=1	=1	=1	=1	=1	=1	=1	=1
!	!	!	!	!	!	!	!	!	!	!	!	!LO:TX:a:t=problem:klucz zapisany jako mezzosopranowy, znaki przykluczowe jak w sopranowym	!	!	!	!	!	!	!	!	!	!
!LO:TX:a:t=Adagio	!	!LO:TX:a:t=Adagio	!	!LO:TX:a:t=Adagio	!	!LO:TX:a:t=Adagio	!	!	!LO:TX:a:t=Adagio	!	!	!LO:TX:a:t=Adagio	!	!	!	!	!	!	!	!	!	!
!	!LO:DY:t=pp:	!	!	!	!LO:DY:t=pp:	!	!	!	!	!	!LO:DY:b	!	!	!LO:DY:b	!LO:TX:a:t=Adagio	!	!LO:TX:a:t=Adagio	!	!LO:TX:a:t=Adagio	!	!LO:TX:a:t=Adagio	!
!	!LO:DY:b	!	!LO:DY:b	!	!LO:DY:b	!	!	!	!	!	!LO:DY:t=p:	!	!	!	!	!	!	!	!	!	!	!
4.E-\	pp	4.B-/ 4.g	pp	4.g\ 4.ee-	pp	4.E-\	Oy-	.	4.g\	Oy-	p	4.ee-\	Oy-	p	2r	.	2r	.	2r	.	2r	.
8E-\	.	8B-/ 8g	.	8g\ 8ee-	.	8E-\	-cze	.	8g\	-cze	.	8ee-\	-cze	.	.	.	.	.	.	.	.	.
*2\right	*	*2\right	*	*2\right	*	*2\right	*	*	*2\right	*	*	*2\right	*	*	*	*	*	*	*	*	*	*
2E-;\	.	2B-;/ 2g	.	2g;\ 2ee-	.	2E-;\	nasz	.	2g;\	nasz	.	2ee-;\	nasz	.	2r;	.	2r;	.	2r;	.	2r;	.
=2	=2	=2	=2	=2	=2	=2	=2	=2	=2	=2	=2	=2	=2	=2	=2	=2	=2	=2	=2	=2	=2	=2
4.F\	.	4.B-/ 4.a-	.	4.f\ 4.dd	.	4.F\	{Oy-	.	4.a-\	{Oy-	.	4.dd\	Oy-	.	2r	.	2r	.	2r	.	2r	.
8F\	.	8B-/ 8a-	.	8f\ 8dd	.	8F\	-cze	.	8a-\	-cze	.	8dd\	-cze	.	.	.	.	.	.	.	.	.
2F;\	.	2B-;/ 2a-	.	2f;\ 2dd	.	2F;\	nasz}	.	2a-;\	nasz}	.	2dd;\	nasz	.	2r;	.	2r;	.	2r;	.	2r;	.
=3	=3	=3	=3	=3	=3	=3	=3	=3	=3	=3	=3	=3	=3	=3	=3	=3	=3	=3	=3	=3	=3	=3
!	!	!	!	!	!	!	!	!	!	!	!	!	!	!	!LO:TX:a:t=24	!	!LO:TX:a:t=24	!	!LO:TX:a:t=24	!	!LO:TX:a:t=24	!
4E-\	.	(8g/L	.	(8ee-\L	.	4E-\	Któ-	.	8g\L	Któ-	.	8ee-\L	Któ-	.	1r	.	1r	.	1r	.	1r	.
.	.	8a-/	.	8cc\	.	.	.	.	8a-\	.	.	8cc\	.	.	.	.	.	.	.	.	.	.
8A-\	.	8f/)	.	8a-\	.	4A-\	-ryś	.	8f\J	.	.	8a-\J	.	.	.	.	.	.	.	.	.	.
8r	.	8A-/J	.	8f\J)	.	.	.	.	8A-/	-ryś	.	8f/	-ryś	.	.	.	.	.	.	.	.	.
4B-\	.	4.G/	.	4.G/ 4.e-	.	4B-\	iest	.	4.G/	iest	.	4.e-/	iest	.	.	.	.	.	.	.	.	.
4BB-/	.	.	.	.	.	4BB-/	w_nie-	.	.	.	.	.	.	.	.	.	.	.	.	.	.	.
.	.	8B-/	.	8f/	.	.	.	.	8B-/	w_nie-	.	8f/	w_nie-	.	.	.	.	.	.	.	.	.
=4	=4	=4	=4	=4	=4	=4	=4	=4	=4	=4	=4	=4	=4	=4	=4	=4	=4	=4	=4	=4	=4	=4
!	!	!	!	!	!	!	!	!	!	!	!LO:DY:a	!	!	!LO:DY:a	!	!	!	!	!	!	!	!
[2E-\	.	[2B-/	.	4.f#X/	.	2E-\	-bie-	>	2B-\	-bie-	>	(4.f#X/	-bie-	>	1r	.	1r	.	1r	.	1r	.
.	.	.	.	8g/	.	.	.	.	.	.	.	8g/	.	.	.	.	.	.	.	.	.	.
4E-\]	.	4B-/]	.	4g/	.	4E-\	-siech	]	4B-\	-siech	.	4g/)	-siech	]	.	.	.	.	.	.	.	.
4r	.	4r	.	4r	.	4r	.	.	4r	.	]]	4r	.	.	.	.	.	.	.	.	.	.
=5	=5	=5	=5	=5	=5	=5	=5	=5	=5	=5	=5	=5	=5	=5	=5	=5	=5	=5	=5	=5	=5	=5
4.A-\	.	4.c/	.	4.f/	.	4.A-\	Swięć	.	4.c\	Swięć	.	4.fn/	Swięć	.	1r	.	1r	.	1r	.	1r	.
8A-\	.	8c/	.	8f/	.	8A-\	się	.	8c\	sie	.	8f/	sie	.	.	.	.	.	.	.	.	.
4F\	.	4.c/	.	4a-/	.	(4F\	I-	.	4.c\	I-	.	(4a-/	I-	.	.	.	.	.	.	.	.	.
8G\L	.	.	.	8g/L	.	8G\)	.	.	.	.	.	8g/	.	.	.	.	.	.	.	.	.	.
8A-\J	.	8c/	.	8f#X/J	.	8A-\	-mie	.	8c\	-mie	.	8f#X/)	-mie	.	.	.	.	.	.	.	.	.
=6	=6	=6	=6	=6	=6	=6	=6	=6	=6	=6	=6	=6	=6	=6	=6	=6	=6	=6	=6	=6	=6	=6
2G\	.	2Bn/	.	2g/	.	4G\	Two-	.	(2Bn\	Two-	.	4g/	Two-	.	1r	.	1r	.	1r	.	1r	.
.	.	.	.	.	.	4G\	-ie	.	.	.	.	4g/	-ie	.	.	.	.	.	.	.	.	.
2r	.	2r	.	4g/	.	2r	.	.	4g\)	.	.	2r	.	.	.	.	.	.	.	.	.	.
.	.	.	.	4fn/	.	.	.	.	4f\	-ie	.	.	.	.	.	.	.	.	.	.	.	.
=7	=7	=7	=7	=7	=7	=7	=7	=7	=7	=7	=7	=7	=7	=7	=7	=7	=7	=7	=7	=7	=7	=7
4.A-\	.	4.c/ 4.e-	.	4.e-\ 4.cc	.	4.A-\	przyidz	.	4.e-\	przyidź	.	4.cc\	przyidz	.	1r	.	1r	.	1r	.	1r	.
8A-\	.	8c/ 8e-	.	8e-\ 8cc	.	8A-\	Kro-	.	8e-\	Kro-	.	8cc\	Kró-	.	.	.	.	.	.	.	.	.
!	!	!	!	!	!	!LO:LB:g=original	!	!	!LO:LB:g=original	!	!	!LO:LB:g=original	!	!	!	!	!	!	!	!	!	!
4A-\	.	4.c/ 4.e-	.	4e-\ 4cc	.	(4A-\	-les-	.	4.e-\	-le-	.	4cc\	-le-	.	.	.	.	.	.	.	.	.
8B-\L	.	.	.	8b-\L	.	8B-\)	.	.	.	.	.	8b-\	.	.	.	.	.	.	.	.	.	.
8c-X\J	.	8e-/	.	8an\J	.	8c-X\	-two	.	8e-\	-stwo	.	8an\	-stwo	.	.	.	.	.	.	.	.	.
=8	=8	=8	=8	=8	=8	=8	=8	=8	=8	=8	=8	=8	=8	=8	=8	=8	=8	=8	=8	=8	=8	=8
!LO:LB:g=original	!	!LO:LB:g=original	!	!LO:LB:g=original	!	!	!	!	!	!	!	!LO:TX:a:t=SIC:s=8.an	!	!	!	!	!	!	!	!	!	!
2B-\	.	8.e-/L	.	8.an/L	.	2B-\	Two-	.	8.e-\L	Two-	.	8.a-\L	Two-	.	1r	.	1r	.	1r	.	1r	.
.	.	16d/Jk	.	16b-/Jk	.	.	.	.	16d\Jk	.	.	16b-\Jk	.	.	.	.	.	.	.	.	.	.
.	.	4B-/ 4d	.	4b-/	.	.	.	.	4d\	-ie	.	4b-\	-ie	.	.	.	.	.	.	.	.	.
.	.	.	.	.	.	16qqAn/LL	.	.	.	.	.	.	.	.	.	.	.	.	.	.	.	.
.	.	.	.	.	.	16qqB-/	.	.	.	.	.	.	.	.	.	.	.	.	.	.	.	.
.	.	.	.	.	.	16qqc/JJ	.	.	.	.	.	.	.	.	.	.	.	.	.	.	.	.
4B-\	.	2r	.	2r	.	4B-\	.	.	2r	.	.	2r	.	.	.	.	.	.	.	.	.	.
4A-X\	.	.	.	.	.	4A-X\	-ie	.	.	.	.	.	.	.	.	.	.	.	.	.	.	.
=9	=9	=9	=9	=9	=9	=9	=9	=9	=9	=9	=9	=9	=9	=9	=9	=9	=9	=9	=9	=9	=9	=9
!	!	!	!	!	!	!	!	!LO:DY:a	!	!	!	!	!	!	!	!	!	!	!	!	!	!
4.G\	.	4.d/	.	4.b-/	.	4G\	bądź	<	4d\	bądź	.	4b-\	bądź	.	1r	.	1r	.	1r	.	1r	.
.	.	.	.	.	.	8G\	wo-	.	8d\	wo-	.	8b-\	wo-	.	.	.	.	.	.	.	.	.
8F\	.	8d-X/	.	8bn/	.	8F\	-la	[	8d-X\	-la	.	8bn\	-la	.	.	.	.	.	.	.	.	.
8En\L	.	4c/	.	4cc\	.	8En\L	two-	.	4c\	two-	.	4cc\	two-	.	.	.	.	.	.	.	.	.
8G\	.	.	.	.	.	8G\	.	.	.	.	.	.	.	.	.	.	.	.	.	.	.	.
8c\	.	4c/	.	4g\	.	8c\J	.	.	4c\	-ia	.	4g\	-ia	.	.	.	.	.	.	.	.	.
8En\J	.	.	.	.	.	8E\	-ia	.	.	.	.	.	.	.	.	.	.	.	.	.	.	.
=10	=10	=10	=10	=10	=10	=10	=10	=10	=10	=10	=10	=10	=10	=10	=10	=10	=10	=10	=10	=10	=10	=10
!	!	!	!	!	!	!	!	!	!	!	!LO:DY:a	!	!	!	!	!	!	!	!	!	!	!
4F\	.	4.c/	.	4.a-/	.	4F\	ia-	.	4.c\	ia-	<	4.a-\	ia-	.	1r	.	1r	.	1r	.	1r	.
4E-\	.	.	.	.	.	4E-\	-ko	.	.	.	.	.	.	.	.	.	.	.	.	.	.	.
.	.	8c-X/	.	8an/	.	.	.	.	8c-X\	-ko	.	8an\	-ko	.	.	.	.	.	.	.	.	.
(8D\L	.	4B-/	.	4b-\	.	8D\L	w_nie-	.	4B-\	w Nie-	[	4b-\	w Nie-	.	.	.	.	.	.	.	.	.
8F\	.	.	.	.	.	8F\	.	.	.	.	.	.	.	.	.	.	.	.	.	.	.	.
8B-\	.	4f/	.	4dd\	.	8B-\J	.	.	4f\	-bie	.	4dd\	-bie	.	.	.	.	.	.	.	.	.
8A-\J)	.	.	.	.	.	8A-\	-bie	.	.	.	.	.	.	.	.	.	.	.	.	.	.	.
=11	=11	=11	=11	=11	=11	=11	=11	=11	=11	=11	=11	=11	=11	=11	=11	=11	=11	=11	=11	=11	=11	=11
!LO:TX:a:t=problem:mixed beam	!	!	!	!	!	!	!	!	!	!	!	!	!	!	!	!	!	!	!	!	!	!
8G\L	.	(8g/L	.	8ee-\L	.	8G\L	tak	.	8g\L	tak	.	8ee-\L	tak	.	1r	.	1r	.	1r	.	1r	.
8F\	.	8a-/	.	8cc\	.	8F\J	.	.	8a-\J	.	.	8cc\J	.	.	.	.	.	.	.	.	.	.
8A-\	.	8f/)	.	8a-\	.	8A-\	i	.	8f\	i	.	8a-\	ina	.	.	.	.	.	.	.	.	.
8AA-/J	.	8A-/J	.	8f\J	.	8AA-/	na	.	8A-/	na	.	8f/	zie-	.	.	.	.	.	.	.	.	.
2BB-/	.	4G/	.	4G/ 4e-	.	2BB-/	zie-	.	(<4Gm</	zie-	.	(>4e-M</	.	.	.	.	.	.	.	.	.	.
.	.	4A-/ 4d	.	8g/L	.	.	.	.	8B-/L	.	.	8g/L	.	.	.	.	.	.	.	.	.	.
.	.	.	.	8f/J	.	.	.	.	8A-/J)	.	.	8f/J)	.	.	.	.	.	.	.	.	.	.
=12	=12	=12	=12	=12	=12	=12	=12	=12	=12	=12	=12	=12	=12	=12	=12	=12	=12	=12	=12	=12	=12	=12
2.E-\	.	2.G/ 2.e-	.	2.G/ 2.e-	.	2E-\	-mi	.	2G/	-mi	.	2e-/	-mi	.	1r	.	1r	.	1r	.	1r	.
.	.	.	.	.	.	2r	.	.	2r	.	.	2r	.	.	.	.	.	.	.	.	.	.
4r	.	4r	.	4r	.	.	.	.	.	.	.	.	.	.	.	.	.	.	.	.	.	.
=13	=13	=13	=13	=13	=13	=13	=13	=13	=13	=13	=13	=13	=13	=13	=13	=13	=13	=13	=13	=13	=13	=13
!	!	!	!	!	!	!	!	!	!	!	!LO:DY:t=f:	!	!	!LO:DY:b	!	!	!	!	!	!	!	!
!	!	!	!	!	!	!	!	!	!	!	!LO:DY:b	!	!	!LO:DY:t=f:	!	!	!	!	!	!	!	!
4B-\	.	4d-X/	.	4en/	.	4B-\	Chle-	.	4d-X\	Chle-	f	4en/	Chle-	f	1r	.	1r	.	1r	.	1r	.
8.B-\L	.	8.d-/L	.	8.e/L	.	8.B-\	-ba	.	8.d-\	-ba	.	8.e/	-ba	.	.	.	.	.	.	.	.	.
16B-\Jk	.	16d-/Jk	.	16e/Jk	.	16B-\	na-	.	16d-\	na-	.	16e/	na-	.	.	.	.	.	.	.	.	.
!	!	!	!	!	!	!LO:LB:g=original	!	!	!	!	!	!	!	!	!	!	!	!	!	!	!	!
8.B-\L	.	8.d-/L	.	8.e/L	.	8.B-\	-sze-	.	8.d-\	-sze-	.	8.e/	-sze-	.	.	.	.	.	.	.	.	.
16B-\K	.	16d-/K	.	16e/K	.	16B-\	-go	.	16d-\	-go	.	16e/	-go	.	.	.	.	.	.	.	.	.
!	!	!	!	!	!	!	!	!	!LO:LB:g=original	!	!	!LO:LB:g=original	!	!	!	!	!	!	!	!	!	!
8.A-\	.	8.c/	.	8.f/	.	8.A-\	po-	.	8.c\	po-	.	8.f/	po-	.	.	.	.	.	.	.	.	.
16En\Jk	.	16c/Jk	.	16g/Jk	.	16En\	-wsze-	.	16c\	-wsze-	.	16f/	-wsze-	.	.	.	.	.	.	.	.	.
=14	=14	=14	=14	=14	=14	=14	=14	=14	=14	=14	=14	=14	=14	=14	=14	=14	=14	=14	=14	=14	=14	=14
!LO:TX:a:t=SIC:s=4..En	!	!	!	!	!	!LO:TX:a:t=SIC:s=4..En	!	!	!	!	!LO:DY:a	!	!	!LO:DY:a	!	!	!	!	!	!	!	!
4..E-\	.	[2c/	.	4..g/	.	(4..E-\	-dnie-	.	2c\	-dnie-	>	(4..g/	-dnie-	>	1r	.	1r	.	1r	.	1r	.
16F\	.	.	.	16a-/	.	16F\)	.	.	.	.	.	16a-/)	.	.	.	.	.	.	.	.	.	.
4F\	.	4c/]	.	4a-/	.	4F\	-go	.	4c\	-go	.	4a-/	-go	]	.	.	.	.	.	.	.	.
4r	.	4r	.	4r	.	4r	.	.	4r	.	]]	4r	.	.	.	.	.	.	.	.	.	.
=15	=15	=15	=15	=15	=15	=15	=15	=15	=15	=15	=15	=15	=15	=15	=15	=15	=15	=15	=15	=15	=15	=15
!LO:LB:g=original	!	!LO:LB:g=original	!	!LO:LB:g=original	!	!	!	!LO:DY:t=p:	!	!	!LO:DY:b	!	!	!LO:DY:b	!	!	!	!	!	!	!	!
!	!	!	!	!	!	!	!	!LO:DY:b	!	!	!LO:DY:t=p:	!	!	!	!	!	!	!	!	!	!	!
8r	.	[2f/	.	[2a-/	.	8r	.	p	2f\	day	p	(2a-\	day	p	1r	.	1r	.	1r	.	1r	.
8A-\L	.	.	.	.	.	(8A-\L	day	.	.	.	.	.	.	.	.	.	.	.	.	.	.	.
8F\	.	.	.	.	.	8F\	.	.	.	.	.	.	.	.	.	.	.	.	.	.	.	.
8E-X\J	.	.	.	.	.	8E-\J)	.	.	.	.	.	.	.	.	.	.	.	.	.	.	.	.
4.D\	.	4.f/]	.	8a-/L]	.	4.D\	.	.	4.f\	.	.	8a-\L)	.	.	.	.	.	.	.	.	.	.
.	.	.	.	8cc-X/	.	.	.	.	.	.	.	(8cc-X\	.	.	.	.	.	.	.	.	.	.
.	.	.	.	8b-/	.	.	.	.	.	.	.	8b-\J)	.	.	.	.	.	.	.	.	.	.
8D\	.	8f/	.	8a-/J	.	8D\	nam	.	8f\	nam	.	8a-\	nam	.	.	.	.	.	.	.	.	.
=16	=16	=16	=16	=16	=16	=16	=16	=16	=16	=16	=16	=16	=16	=16	=16	=16	=16	=16	=16	=16	=16	=16
2E-\	.	4B-/ 4f	.	4a-/	.	4E-\	dzi-	.	4f\	dzi-	.	4a-\	dzi-	.	1r	.	1r	.	1r	.	1r	.
.	.	4G/ 4e-	.	4g/	.	4E-\	-siay	.	4e-\	-siay	.	4g\	-siay	.	.	.	.	.	.	.	.	.
4r	.	4r	.	4r	.	4r	.	.	4r	.	.	4r	.	.	.	.	.	.	.	.	.	.
8.BB-/L	.	8.B-/L	.	8.b-\L	.	8.B-\	a	.	8.B-\	a	p	8.b-\	a	.	.	.	.	.	.	.	.	.
16BB-/Jk	.	16B-/Jk	.	16b-\Jk	.	16B-\	od-	.	16B-\	od-	.	16b-\	od-	.	.	.	.	.	.	.	.	.
=17	=17	=17	=17	=17	=17	=17	=17	=17	=17	=17	=17	=17	=17	=17	=17	=17	=17	=17	=17	=17	=17	=17
!!pagebreak:original
4.D\	.	4.f/	.	4.f/ 4.b-	.	4.D\	-puść	.	4.f\	-puść	.	4.b-\	-puść	.	1r	.	1r	.	1r	.	1r	.
8D\	.	8f/	.	8f/ 8b-	.	8D\	nam	.	8f\	nam	.	8b-\	nam	.	.	.	.	.	.	.	.	.
!	!	!	!	!	!	!LO:TX:a:t=problem:dynamika pod łukami	!	!LO:DY:a	!	!	!LO:HP:b	!	!	!LO:DY:a	!	!	!	!	!	!	!	!
(8D\L	.	(8f/L	.	8b-/L	.	(8D\L	na-	<	(8f\L	na-	<	8b-\L	na-	<	.	.	.	.	.	.	.	.
8E-\J)	.	8g-X/J)	.	8an/J	.	8E-\J)	.	.	8g-X\J)	.	.	8an\J	.	.	.	.	.	.	.	.	.	.
!	!	!	!	!	!	!	!	!LO:DY:a	!	!	!LO:HP:b	!	!	!LO:DY:a	!	!	!	!	!	!	!	!
(8E-\L	.	(8g-/L	.	8a/L	.	(8E-\L	-sze	[ >	(8g-\L	-sze	[ >	8a\L	-sze	[ >	.	.	.	.	.	.	.	.
8D\J)	.	8f/J)	.	8b-/J	.	8D\J)	.	]]	8f\J)	.	]]	8b-\J	.	]]	.	.	.	.	.	.	.	.
=18	=18	=18	=18	=18	=18	=18	=18	=18	=18	=18	=18	=18	=18	=18	=18	=18	=18	=18	=18	=18	=18	=18
4D\	.	4f/	.	4d/ 4b-	.	4D\	wi-	.	4f\	wi-	.	4b-\	wi-	.	1r	.	1r	.	1r	.	1r	.
4D\	.	4f/	.	4d/ 4b-	.	4D\	-ny	.	4f\	-ny	.	4b-\	-ny	.	.	.	.	.	.	.	.	.
!	!	!	!	!	!	!LO:LB:g=original	!	!	!	!	!	!	!	!	!	!	!	!	!	!	!	!
4r	.	4r	.	4r	.	4r	.	.	4r	.	.	4r	.	.	.	.	.	.	.	.	.	.
8.BB-/L	.	8.B-/L	.	8.b-\L	.	8.B-\	ia-	.	8.B-\	ia-	.	8.b-\	ia-	.	.	.	.	.	.	.	.	.
!	!	!	!	!LO:N:vis=8	!	!	!	!	!	!	!	!	!	!	!	!	!	!	!	!	!	!
16BB-/Jk	.	16B-/Jk	.	16b-\Jk	.	16B-\	-ko	.	16B-\	-ko	.	16b-\	-ko	.	.	.	.	.	.	.	.	.
=19	=19	=19	=19	=19	=19	=19	=19	=19	=19	=19	=19	=19	=19	=19	=19	=19	=19	=19	=19	=19	=19	=19
4.F\	.	4.a-/	.	4.dd\	.	4.F\	i	.	4.A-\	imy	.	4.dd\	i	.	1r	.	1r	.	1r	.	1r	.
8F\	.	8a-/	.	8dd\	.	8F\	my	.	8A-\	.	.	8dd\	my	.	.	.	.	.	.	.	.	.
!	!	!	!	!	!	!	!	!	!	!	!	!LO:LB:g=original	!	!	!	!	!	!	!	!	!	!
8F\L	.	8a-\L	.	4.dd\	.	8F\L	od-	.	(8A-\L	od-	.	4.dd\	od-	.	.	.	.	.	.	.	.	.
8A-\	.	8cc-X\	.	.	.	8A-\	.	.	8c-X\	.	.	.	.	.	.	.	.	.	.	.	.	.
8G-X\	.	8b-\	.	.	.	8G-X\J	.	.	8B-\J	.	.	.	.	.	.	.	.	.	.	.	.	.
8F\J	.	8a-\J	.	8dd\	.	8F\	-pusz-	.	8A-\)	-pu-	.	8dd\	-pusz-	.	.	.	.	.	.	.	.	.
=20	=20	=20	=20	=20	=20	=20	=20	=20	=20	=20	=20	=20	=20	=20	=20	=20	=20	=20	=20	=20	=20	=20
!	!	!	!	!	!	!	!	!	!LO:LB:g=original	!	!	!	!	!	!	!	!	!	!	!	!	!
8.F\L	.	8.a-/L	.	(8.dd\L	.	8.F\L	-cza-	.	(8.A-\L	-szcza-	.	(8.dd\L	-cza-	.	1r	.	1r	.	1r	.	1r	.
16E-\Jk	.	16g-X/Jk	.	16ee-\Jk	.	16E-\Jk	.	.	16G-X\Jk)	.	.	16ee-\Jk)	.	.	.	.	.	.	.	.	.	.
4E-\	.	4g-/	.	4ee-\)	.	4E-\	-my	.	4G-\	-my	.	4ee-\	-my	.	.	.	.	.	.	.	.	.
2r	.	2r	.	8r	.	2r	.	.	2r	.	.	2r	.	.	.	.	.	.	.	.	.	.
.	.	.	.	16qqf/L	.	.	.	.	.	.	.	.	.	.	.	.	.	.	.	.	.	.
.	.	.	.	16qqe-/	.	.	.	.	.	.	.	.	.	.	.	.	.	.	.	.	.	.
.	.	.	.	16qqd/J	.	.	.	.	.	.	.	.	.	.	.	.	.	.	.	.	.	.
.	.	.	.	8e-/L	.	.	.	.	.	.	.	.	.	.	.	.	.	.	.	.	.	.
.	.	.	.	8g-X/	.	.	.	.	.	.	.	.	.	.	.	.	.	.	.	.	.	.
.	.	.	.	8b-/J	.	.	.	.	.	.	.	.	.	.	.	.	.	.	.	.	.	.
=21	=21	=21	=21	=21	=21	=21	=21	=21	=21	=21	=21	=21	=21	=21	=21	=21	=21	=21	=21	=21	=21	=21
!	!	!	!	!	!	!	!	!LO:DY:t=f:	!	!	!	!	!	!LO:DY:b	!	!	!	!	!	!	!	!
!	!	!	!	!	!	!	!	!LO:DY:b	!	!	!LO:DY:b	!	!	!LO:DY:t=f:	!	!	!	!	!	!	!	!
4.C-X/	.	4.e-/	.	4.an/	.	4.C-X/	na-	f	4.e-\	na-	f	4.an\	na-	f	1r	.	1r	.	1r	.	1r	.
8C-/	.	8e-/	.	8a/	.	8C-/	-szym	.	8e-\	-szym	.	8a\	-szym	.	.	.	.	.	.	.	.	.
4.C-/	.	8e-/L	.	4.a/	.	4.C-/	wi-	.	8e-\L	wi-	.	4.a\	wi-	.	.	.	.	.	.	.	.	.
.	.	8g-X/	.	.	.	.	.	.	8g-X\	.	.	.	.	.	.	.	.	.	.	.	.	.
.	.	8f/	.	.	.	.	.	.	8f\J	.	.	.	.	.	.	.	.	.	.	.	.	.
8C-/	.	8e-/J	.	8a/	.	8C-/	-no-	.	8e-\	-no-	.	8a\	-no-	.	.	.	.	.	.	.	.	.
=22	=22	=22	=22	=22	=22	=22	=22	=22	=22	=22	=22	=22	=22	=22	=22	=22	=22	=22	=22	=22	=22	=22
!LO:LB:g=original	!	!LO:LB:g=original	!	!LO:LB:g=original	!	!	!	!	!	!	!	!	!	!	!	!	!	!	!	!	!	!
2BB-/	.	2.B-/ 2.d	.	2.b-;\	.	(2BB-/	-way-	.	2.d\	-way-	.	2.b-\	-way-	.	1r	.	1r	.	1r	.	1r	.
4B-\	.	.	.	.	.	4B-\)	.	.	.	.	.	.	.	.	.	.	.	.	.	.	.	.
4A-X\	.	4r	.	4r	.	4A-\	-com	.	4d\	-com	.	4b-\	-com	.	.	.	.	.	.	.	.	.
=23	=23	=23	=23	=23	=23	=23	=23	=23	=23	=23	=23	=23	=23	=23	=23	=23	=23	=23	=23	=23	=23	=23
!	!	!	!	!	!	!	!	!LO:DY:a	!	!	!LO:DY:a	!	!	!LO:DY:a	!	!	!	!	!	!	!	!
4G\	.	4d/	.	4.b-\	.	4G\	i-	<	4d\	i	<	4.b-\	i	<	1r	.	1r	.	1r	.	1r	.
4F\	.	4d-X/	.	.	.	4F\	-nie	.	4d-X\	nie	.	.	.	.	.	.	.	.	.	.	.	.
.	.	.	.	8bn\	.	.	.	.	.	.	.	8bn\	nie	.	.	.	.	.	.	.	.	.
!	!	!	!	!	!	!	!	!	!	!	!LO:DY:a	!	!	!LO:DY:a	!	!	!	!	!	!	!	!
8En\L	.	4c/	.	4cc\	.	(8En\L	wodź	[	4c\	wodź	[ >	4cc\	wodź	[ >	.	.	.	.	.	.	.	.
8G\	.	.	.	.	.	8G\	.	.	.	.	.	.	.	.	.	.	.	.	.	.	.	.
8c\	.	4c/	.	4g/	.	8c\J)	.	.	4c\	nas	]]	4g\	nas	]	.	.	.	.	.	.	.	.
8C\J	.	.	.	.	.	8E\	nas	.	.	.	.	.	.	.	.	.	.	.	.	.	.	.
=24	=24	=24	=24	=24	=24	=24	=24	=24	=24	=24	=24	=24	=24	=24	=24	=24	=24	=24	=24	=24	=24	=24
!	!	!	!	!	!	!LO:LB:g=original	!	!	!	!	!LO:DY:a	!	!	!	!	!	!	!	!	!	!	!
4F\	.	4c/	.	4a-/	.	4F\	na	.	4c\	na	<	4a-\	na	.	1r	.	1r	.	1r	.	1r	.
4E-X\	.	4c-X/	.	8a-/L	.	8E-X\	po-	.	8c-X\	po-	.	8a-\	po-	.	.	.	.	.	.	.	.	.
.	.	.	.	8an/J	.	8E-\	-ku-	.	8c-\	-ku-	[	8an\	-Ku-	.	.	.	.	.	.	.	.	.
8D\L	.	4B-/	.	4b-\	.	(8D\L	-sze-	.	4B-\	-sze-	.	4b-\	-sze-	.	.	.	.	.	.	.	.	.
8F\	.	.	.	.	.	8F\	.	.	.	.	.	.	.	.	.	.	.	.	.	.	.	.
8B-\	.	4f/	.	4dd\	.	8B-\J)	.	.	4f\	-nie	.	4dd\	-nie	.	.	.	.	.	.	.	.	.
8A-\J	.	.	.	.	.	8A-\	-nie	.	.	.	.	.	.	.	.	.	.	.	.	.	.	.
=25	=25	=25	=25	=25	=25	=25	=25	=25	=25	=25	=25	=25	=25	=25	=25	=25	=25	=25	=25	=25	=25	=25
!LO:TX:a:t=problem:mixed beam	!	!	!	!	!	!	!	!	!	!	!	!	!	!	!	!	!	!	!	!	!	!
8G`\L	.	8g/L	.	8ee-\L	.	8G\	a-	.	8g`\	a-	.	8ee-'\	a-	.	1r	.	1r	.	1r	.	1r	.
8F`\	.	8a-/	.	8cc\	.	8F\	-le	.	8a-`\	-le	.	8cc'\	-le	.	.	.	.	.	.	.	.	.
8A-`\	.	8f/	.	8a-\	.	8A-\	nas	.	8f\	nas	.	8a-'/	nas	.	.	.	.	.	.	.	.	.
8AA-`/J	.	8A-/J	.	8f\J	.	8AA-/	zbaw	.	8A-/	zbaw	.	8f'/	zbaw	.	.	.	.	.	.	.	.	.
!	!	!	!	!	!	!	!	!	!LO:TX:a:t=problem:mordent lub obiegnik	!	!	!LO:LB:g=original	!	!	!	!	!	!	!	!	!	!
2BB-/	.	4G/	.	4Gm</ 4e-	.	4.BB-/	o-	.	(>4Gm</	o-	.	4e-/	o-	.	.	.	.	.	.	.	.	.
.	.	4A-/ 4d	.	8g/L	.	.	.	.	8B-/)	.	.	8gm</	.	.	.	.	.	.	.	.	.	.
.	.	.	.	8f/J	.	8BB-/	-de	.	8A-/	-de	.	8f/	-de	.	.	.	.	.	.	.	.	.
=26	=26	=26	=26	=26	=26	=26	=26	=26	=26	=26	=26	=26	=26	=26	=26	=26	=26	=26	=26	=26	=26	=26
!	!	!	!	!	!	!	!	!	!LO:LB:g=original	!	!	!	!	!	!	!	!	!	!	!	!	!
(2BB-/	.	2A-/ 2d	.	2B-/ 2g	.	2BB-/	złe-	.	2A-/	złe-	.	2f/	złe-	.	1r	.	1r	.	1r	.	1r	.
4E-\)	.	4G/ 4e-	.	4G/ 4e-	.	4E-\	-go	.	4G/	-go	.	4e-/	-go.	.	.	.	.	.	.	.	.	.
4r	.	4r	.	4r	.	4r	.	.	4r	.	.	4r	.	.	.	.	.	.	.	.	.	.
=27	=27	=27	=27	=27	=27	=27	=27	=27	=27	=27	=27	=27	=27	=27	=27	=27	=27	=27	=27	=27	=27	=27
!	!	!	!	!	!LO:DY:b	!	!	!	!	!	!LO:DY:a	!LO:TX:a:t=Tutti	!	!LO:DY:b	!	!	!	!	!	!	!	!
1BB-;	.	1B-; 1a-	.	1f; 1dd	ff	1B-;	A-	.	1f;	A-	ff	1dd;	A-	ff	1r;	.	1r;	.	1r;	.	1r;	.
=28	=28	=28	=28	=28	=28	=28	=28	=28	=28	=28	=28	=28	=28	=28	=28	=28	=28	=28	=28	=28	=28	=28
!LO:TX:a:t=Da Capo	!	!LO:TX:a:t=Da Capo	!	!LO:TX:a:t=Da Capo	!	!	!	!	!	!	!	!	!	!	!	!	!	!	!	!	!	!
1EE-;	.	1B-; 1g	.	1g; 1ee-	.	1E-;	-men.	.	1g;	-men.	.	1ee-;	-menn	.	1r;	.	1r;	.	1r;	.	1r;	.
=29	=29	=29	=29	=29	=29	=29	=29	=29	=29	=29	=29	=29	=29	=29	=29	=29	=29	=29	=29	=29	=29	=29
!LO:TX:a:t=Adagio	!LO:DY:b	!	!LO:DY:b	!	!LO:DY:b	!	!	!	!	!	!	!	!	!	!	!	!	!LO:DY:t=p.	!	!LO:DY:t=p:	!	!
4.E-\	pp	4.B-/ 4.g	pp	4.g\ 4.ee-	pp	2r	.	.	2r	.	.	2r	.	.	4.G/	p	4.e-\	p	4.g/	p	4.ee-\	pp
8E-\	.	8B-/ 8g	.	8g\ 8ee-	.	.	.	.	.	.	.	.	.	.	8G/	.	8e-\	.	8g/	.	8ee-\	.
*	*	*	*	*	*	*	*	*	*	*	*	*	*	*	*2\right	*	*2\right	*	*2\right	*	*2\right	*
2E-;\	.	2B-;/ 2g	.	2g;\ 2ee-	.	2r;	.	.	2r;	.	.	2r;	.	.	2G;</	.	2e-;\	.	2g;</	.	2ee-;\	.
=30	=30	=30	=30	=30	=30	=30	=30	=30	=30	=30	=30	=30	=30	=30	=30	=30	=30	=30	=30	=30	=30	=30
!	!	!	!	!	!	!LO:TX:a:t=problem:repetycja t. 29	!	!	!LO:TX:a:t=problem:repetycja t. 29	!	!	!	!	!	!	!	!	!	!	!	!	!
4.F\	.	4.B-/ 4.a-	.	4.f\ 4.dd	.	2r	.	.	2r	.	.	2r	.	.	4.B-/	.	4.f\	.	4.a-\	.	4.dd\	.
8F\	.	8B-/ 8a-	.	8f\ 8dd	.	.	.	.	.	.	.	.	.	.	8B-/	.	8f\	.	8a-\	.	8dd\	.
2F;\	.	2B-;/ 2a-	.	2f;\ 2dd	.	2r;	.	.	2r;	.	.	2r;	.	.	2B-;</	.	2f;\	.	2a-;\	.	2dd;\	.
=31	=31	=31	=31	=31	=31	=31	=31	=31	=31	=31	=31	=31	=31	=31	=31	=31	=31	=31	=31	=31	=31	=31
!	!	!	!	!	!	!LO:TX:a:t=24.	!	!	!LO:TX:a:t=24.	!	!	!LO:TX:a:t=24	!	!	!	!	!	!	!	!	!	!
4E-\	.	(8g/L	.	(8ee-\L	.	1r	.	.	1r	.	.	1r	.	.	4G/	.	4e-\	.	8g/L	.	8ee-\L	.
.	.	8a-/	.	8cc\	.	.	.	.	.	.	.	.	.	.	.	.	.	.	8a-/	.	8cc\	.
8A-\	.	8f/)	.	8a-\	.	.	.	.	.	.	.	.	.	.	4B-/	.	4f\	.	8f/	.	8a-\ 8aa-	.
8r	.	8A-/J	.	8f\J)	.	.	.	.	.	.	.	.	.	.	.	.	.	.	8a-/J	.	8f\J 8ff	.
4B-\	.	4.G/	.	4.G/ 4.e-	.	.	.	.	.	.	.	.	.	.	4.G/	.	4.e-\	.	4.g/	.	4.ee-\	.
4BB-/	.	.	.	.	.	.	.	.	.	.	.	.	.	.	.	.	.	.	.	.	.	.
.	.	8B-/	.	8f/	.	.	.	.	.	.	.	.	.	.	8B-/	.	8f\	.	8b-\	.	8ff\	.
=32	=32	=32	=32	=32	=32	=32	=32	=32	=32	=32	=32	=32	=32	=32	=32	=32	=32	=32	=32	=32	=32	=32
[2E-\	.	[2B-/	.	4.f#X/	.	1r	.	.	1r	.	.	1r	.	.	2B-/	.	2f\	.	2b-\	.	4.ff#X\	.
.	.	.	.	8g/	.	.	.	.	.	.	.	.	.	.	.	.	.	.	.	.	8gg\	.
4E-\]	.	4B-/]	.	4g/	.	.	.	.	.	.	.	.	.	.	4e-\	.	4g\	.	4b-\	.	4gg\	.
4r	.	4r	.	4r	.	.	.	.	.	.	.	.	.	.	4r	.	4r	.	4r	.	4r	.
=33	=33	=33	=33	=33	=33	=33	=33	=33	=33	=33	=33	=33	=33	=33	=33	=33	=33	=33	=33	=33	=33	=33
!	!	!	!	!	!	!	!	!	!	!	!	!	!	!	!	!	!	!	!LO:LB:g=original	!	!	!
4.A-\	.	4.c/	.	4.f/	.	1r	.	.	1r	.	.	1r	.	.	4.f\	.	4.a-\	.	4.cc\	.	4.ff\	.
8A-\	.	8c/	.	8f/	.	.	.	.	.	.	.	.	.	.	8f\	.	8a-\	.	8cc\	.	8ff\	.
!	!	!	!	!	!	!	!	!	!	!	!	!	!	!	!LO:LB:g=original	!	!LO:LB:g=original	!	!	!	!	!
4F\	.	4.c/	.	4a-/	.	.	.	.	.	.	.	.	.	.	4B-/	.	4f\	.	4.cc\	.	4aa-\	.
8G\L	.	.	.	8g/L	.	.	.	.	.	.	.	.	.	.	8e-\L	.	8g\L	.	.	.	8gg\L	.
8A-\J	.	8c/	.	8f#X/J	.	.	.	.	.	.	.	.	.	.	8f\J	.	8a-\J	.	8cc\	.	8ff#X\J	.
=34	=34	=34	=34	=34	=34	=34	=34	=34	=34	=34	=34	=34	=34	=34	=34	=34	=34	=34	=34	=34	=34	=34
!	!	!	!	!	!	!	!	!	!	!	!	!	!	!	!	!	!	!	!	!	!LO:LB:g=original	!
2G\	.	2Bn/	.	2g/	.	1r	.	.	1r	.	.	1r	.	.	2e-\	.	2g\	.	2bX\	.	2gg\	.
2r	.	2r	.	4g/	.	.	.	.	.	.	.	.	.	.	2r	.	2r	.	2r	.	4gg\	.
.	.	.	.	4fn/	.	.	.	.	.	.	.	.	.	.	.	.	.	.	.	.	4ff#X\	.
=35	=35	=35	=35	=35	=35	=35	=35	=35	=35	=35	=35	=35	=35	=35	=35	=35	=35	=35	=35	=35	=35	=35
4.A-\	.	4.c/ 4.e-	.	4.e-\ 4.cc	.	1r	.	.	1r	.	.	1r	.	.	4e-\	.	4g\	.	4.ee-\	.	4.ccc\	.
.	.	.	.	.	.	.	.	.	.	.	.	.	.	.	4r	.	4r	.	.	.	.	.
8A-\	.	8c/ 8e-	.	8e-\ 8cc	.	.	.	.	.	.	.	.	.	.	.	.	.	.	8ee-\	.	8ccc\	.
4A-\	.	4.c/ 4.e-	.	4e-\ 4cc	.	.	.	.	.	.	.	.	.	.	4e-\	.	4g\	.	4.ee-\	.	4ccc\	.
8B-\L	.	.	.	8b-\L	.	.	.	.	.	.	.	.	.	.	4f\	.	4f\	.	.	.	8bb-\L	.
8c-X\J	.	8e-/	.	8an\J	.	.	.	.	.	.	.	.	.	.	.	.	.	.	8ee-\	.	8aa\J	.
=36	=36	=36	=36	=36	=36	=36	=36	=36	=36	=36	=36	=36	=36	=36	=36	=36	=36	=36	=36	=36	=36	=36
!LO:LB:g=original	!	!LO:LB:g=original	!	!LO:LB:g=original	!	!	!	!	!	!	!	!	!	!	!	!	!	!	!	!	!	!
2B-\	.	8.e-/L	.	8.an/L	.	1r	.	.	1r	.	.	1r	.	.	4B-/	.	4f\	.	8ee-\L	.	8.aa\L	.
.	.	.	.	.	.	.	.	.	.	.	.	.	.	.	.	.	.	.	8dd\J	.	.	.
.	.	16d/Jk	.	16b-/Jk	.	.	.	.	.	.	.	.	.	.	.	.	.	.	.	.	16bb-\Jk	.
.	.	4B-/ 4d	.	4b-/	.	.	.	.	.	.	.	.	.	.	4B-/	.	4f\	.	4dd\	.	4bb-\	.
4B-\	.	2r	.	2r	.	.	.	.	.	.	.	.	.	.	2r	.	2r	.	2r	.	2r	.
4A-X\	.	.	.	.	.	.	.	.	.	.	.	.	.	.	.	.	.	.	.	.	.	.
=37	=37	=37	=37	=37	=37	=37	=37	=37	=37	=37	=37	=37	=37	=37	=37	=37	=37	=37	=37	=37	=37	=37
4.G\	.	4.d/	.	4.b-/	.	1r	.	.	1r	.	.	1r	.	.	4E-/	.	4e-\	.	4.dd\	.	4.bb-\	.
.	.	.	.	.	.	.	.	.	.	.	.	.	.	.	4r	.	4r	.	.	.	.	.
8F\	.	8d-X/	.	8bn/	.	.	.	.	.	.	.	.	.	.	.	.	.	.	8dd-X\	.	8bbX\	.
8En\L	.	4c/	.	4cc\	.	.	.	.	.	.	.	.	.	.	4E-/	.	4e-\	.	4cc\	.	4ccc\	.
8G\	.	.	.	.	.	.	.	.	.	.	.	.	.	.	.	.	.	.	.	.	.	.
8c\	.	4c/	.	4g\	.	.	.	.	.	.	.	.	.	.	4E-/	.	4e-\	.	4g\	.	4gg\	.
8En\J	.	.	.	.	.	.	.	.	.	.	.	.	.	.	.	.	.	.	.	.	.	.
=38	=38	=38	=38	=38	=38	=38	=38	=38	=38	=38	=38	=38	=38	=38	=38	=38	=38	=38	=38	=38	=38	=38
4F\	.	4.c/	.	4.a-/	.	1r	.	.	1r	.	.	1r	.	.	4E-/	.	4e-\	.	4.cc\	.	4.aa-\	.
4E-\	.	.	.	.	.	.	.	.	.	.	.	.	.	.	4E-/	.	4e-\	.	.	.	.	.
.	.	8c-X/	.	8an/	.	.	.	.	.	.	.	.	.	.	.	.	.	.	8cc-X\	.	8aa\	.
(8D\L	.	4B-/	.	4b-\	.	.	.	.	.	.	.	.	.	.	4B-/	.	4f\	.	4b-\	.	4bb-\	.
8F\	.	.	.	.	.	.	.	.	.	.	.	.	.	.	.	.	.	.	.	.	.	.
8B-\	.	4f/	.	4dd\	.	.	.	.	.	.	.	.	.	.	4B-/	.	4f\	.	4f/	.	4dd\	.
8A-\J)	.	.	.	.	.	.	.	.	.	.	.	.	.	.	.	.	.	.	.	.	.	.
=39	=39	=39	=39	=39	=39	=39	=39	=39	=39	=39	=39	=39	=39	=39	=39	=39	=39	=39	=39	=39	=39	=39
!LO:TX:a:t=problem:mixed beam	!	!	!	!	!	!	!	!	!	!	!	!	!	!	!	!	!	!	!	!	!	!
8G\L	.	(8g/L	.	8ee-\L	.	1r	.	.	1r	.	.	1r	.	.	4G/	.	4e-\	.	8g/L	.	8ee-\L	.
8F\	.	8a-/	.	8cc\	.	.	.	.	.	.	.	.	.	.	.	.	.	.	8a-/	.	8cc\	.
8A-\	.	8f/)	.	8a-\	.	.	.	.	.	.	.	.	.	.	4B-/	.	4f\	.	8f/	.	8aa-\	.
8AA-/J	.	8A-/J	.	8f\J	.	.	.	.	.	.	.	.	.	.	.	.	.	.	8g/J	.	8ff\J	.
2BB-/	.	4G/	.	4G/ 4e-	.	.	.	.	.	.	.	.	.	.	4.e-\	.	4.g\	.	4g/	.	(4ee-\	.
.	.	4A-/ 4d	.	8g/L	.	.	.	.	.	.	.	.	.	.	.	.	.	.	4a-/	.	8gg\L	.
.	.	.	.	8f/J	.	.	.	.	.	.	.	.	.	.	8B-/	.	8f\	.	.	.	8ff\J)	.
=40	=40	=40	=40	=40	=40	=40	=40	=40	=40	=40	=40	=40	=40	=40	=40	=40	=40	=40	=40	=40	=40	=40
!	!	!	!	!	!	!	!	!	!	!	!	!	!	!	!	!	!	!	!LO:LB:g=original	!	!	!
2.E-\	.	2.G/ 2.e-	.	2.G/ 2.e-	.	1r	.	.	1r	.	.	1r	.	.	2.G/	.	2.e-\	.	2.g/	.	2.ee-\	.
4r	.	4r	.	4r	.	.	.	.	.	.	.	.	.	.	4r	.	4r	.	4r	.	4r	.
=41	=41	=41	=41	=41	=41	=41	=41	=41	=41	=41	=41	=41	=41	=41	=41	=41	=41	=41	=41	=41	=41	=41
!	!	!	!	!	!	!	!	!	!	!	!	!	!	!	!LO:TX:a:t=2	!	!LO:TX:a:t=2	!	!	!	!	!
4B-\	.	4d-X/	.	4en/	.	1r	.	.	1r	.	.	1r	.	.	1r	.	1r	.	4dd-X\	.	4eeX\	.
8.B-\L	.	8.d-/L	.	8.e/L	.	.	.	.	.	.	.	.	.	.	.	.	.	.	8.dd-\L	.	8.ee\L	.
16B-\Jk	.	16d-/Jk	.	16e/Jk	.	.	.	.	.	.	.	.	.	.	.	.	.	.	16dd-\Jk	.	16ee\Jk	.
8.B-\L	.	8.d-/L	.	8.e/L	.	.	.	.	.	.	.	.	.	.	.	.	.	.	8.dd-\L	.	8.ee\L	.
16B-\K	.	16d-/K	.	16e/K	.	.	.	.	.	.	.	.	.	.	.	.	.	.	16dd-\K	.	16ee\K	.
8.A-\	.	8.c/	.	8.f/	.	.	.	.	.	.	.	.	.	.	.	.	.	.	8.cc\	.	8.ff\	.
16En\Jk	.	16c/Jk	.	16g/Jk	.	.	.	.	.	.	.	.	.	.	.	.	.	.	16cc\Jk	.	16gg\Jk	.
=42	=42	=42	=42	=42	=42	=42	=42	=42	=42	=42	=42	=42	=42	=42	=42	=42	=42	=42	=42	=42	=42	=42
!LO:TX:a:t=SIC:s=4..En	!	!	!	!	!	!	!	!	!	!	!	!	!	!	!	!	!	!	!	!	!LO:LB:g=original	!
4..E-\	.	[2c/	.	4..g/	.	1r	.	.	1r	.	.	1r	.	.	1r	.	1r	.	[2cc\	.	4..gg\	.
16F\	.	.	.	16a-/	.	.	.	.	.	.	.	.	.	.	.	.	.	.	.	.	16aa-\	.
4F\	.	4c/]	.	4a-/	.	.	.	.	.	.	.	.	.	.	.	.	.	.	4cc\]	.	4aa-\	.
4r	.	4r	.	4r	.	.	.	.	.	.	.	.	.	.	.	.	.	.	4r	.	4r	.
=43	=43	=43	=43	=43	=43	=43	=43	=43	=43	=43	=43	=43	=43	=43	=43	=43	=43	=43	=43	=43	=43	=43
!LO:LB:g=original	!	!LO:LB:g=original	!	!LO:LB:g=original	!	!	!	!	!	!	!	!	!	!	!LO:LB:g=original	!	!	!	!	!	!	!
8r	.	[2f/	.	[2a-/	.	1r	.	.	1r	.	.	1r	.	.	2B-/	.	2f\	.	2ff\	.	2aa-\	.
8A-\L	.	.	.	.	.	.	.	.	.	.	.	.	.	.	.	.	.	.	.	.	.	.
8F\	.	.	.	.	.	.	.	.	.	.	.	.	.	.	.	.	.	.	.	.	.	.
8E-X\J	.	.	.	.	.	.	.	.	.	.	.	.	.	.	.	.	.	.	.	.	.	.
4.D\	.	4.f/]	.	8a-/L]	.	.	.	.	.	.	.	.	.	.	4B-/	.	4f\	.	4.ff\	.	8aa-\L	.
.	.	.	.	8cc-X/	.	.	.	.	.	.	.	.	.	.	.	.	.	.	.	.	8ccc-X\	.
.	.	.	.	8b-/	.	.	.	.	.	.	.	.	.	.	4B-/	.	4f\	.	.	.	8bb-\	.
8D\	.	8f/	.	8a-/J	.	.	.	.	.	.	.	.	.	.	.	.	.	.	8ff\	.	8aa-\J	.
=44	=44	=44	=44	=44	=44	=44	=44	=44	=44	=44	=44	=44	=44	=44	=44	=44	=44	=44	=44	=44	=44	=44
2E-\	.	4B-/ 4f	.	4a-/	.	1r	.	.	1r	.	.	1r	.	.	4B-/	.	4f\	.	4ff\	.	4aa-\	.
.	.	4G/ 4e-	.	4g/	.	.	.	.	.	.	.	.	.	.	4G/	.	4e-\	.	4ee-\	.	4gg\	.
4r	.	4r	.	4r	.	.	.	.	.	.	.	.	.	.	2r	.	2r	.	4r	.	4r	.
8.BB-/L	.	8.B-/L	.	8.b-\L	.	.	.	.	.	.	.	.	.	.	.	.	.	.	8.b-\L	.	8.b-\L	.
16BB-/Jk	.	16B-/Jk	.	16b-\Jk	.	.	.	.	.	.	.	.	.	.	.	.	.	.	16b-\Jk	.	16b-\Jk	.
=45	=45	=45	=45	=45	=45	=45	=45	=45	=45	=45	=45	=45	=45	=45	=45	=45	=45	=45	=45	=45	=45	=45
!	!	!	!	!	!	!	!	!	!	!	!	!	!	!	!	!	!LO:LB:g=original	!	!	!	!	!
!	!	!	!	!	!	!	!	!	!	!	!	!	!	!	!	!	!	!	!LO:TX:a:t=problem:takt zamazany	!	!	!
4.D\	.	4.f/	.	4.f/ 4.b-	.	1r	.	.	1r	.	.	1r	.	.	4.B-/	.	4.f\	.	4.ee-\yy	.	4.bb-\	.
8D\	.	8f/	.	8f/ 8b-	.	.	.	.	.	.	.	.	.	.	8B-/	.	8f\	.	8ee-\yy	.	8bb-\	.
(8D\L	.	(8f/L	.	8b-/L	.	.	.	.	.	.	.	.	.	.	4B-/	.	4f\	.	8ee-\Lyy	.	(8bb-\L	.
8E-\J)	.	8g-X/J)	.	8an/J	.	.	.	.	.	.	.	.	.	.	.	.	.	.	8ff-X\Jyy	.	8aa\J)	.
(8E-\L	.	(8g-/L	.	8a/L	.	.	.	.	.	.	.	.	.	.	4f\	.	4f\	.	4ff-\yy	.	(8aa\L	.
8D\J)	.	8f/J)	.	8b-/J	.	.	.	.	.	.	.	.	.	.	.	.	.	.	.	.	8bb-\J)	.
=46	=46	=46	=46	=46	=46	=46	=46	=46	=46	=46	=46	=46	=46	=46	=46	=46	=46	=46	=46	=46	=46	=46
4D\	.	4f/	.	4d/ 4b-	.	1r	.	.	1r	.	.	1r	.	.	4B-/	.	4f\	.	4ff\	.	4bb-\	.
4D\	.	4f/	.	4d/ 4b-	.	.	.	.	.	.	.	.	.	.	4B-/	.	4f\	.	4ff\	.	4bb-\	.
4r	.	4r	.	4r	.	.	.	.	.	.	.	.	.	.	2r	.	2r	.	4r	.	4r	.
8.BB-/L	.	8.B-/L	.	8.b-\L	.	.	.	.	.	.	.	.	.	.	.	.	.	.	8.b-\L	.	8.b-\L	.
!	!	!	!	!LO:N:vis=8	!	!	!	!	!	!	!	!	!	!	!	!	!	!	!	!	!	!
16BB-/Jk	.	16B-/Jk	.	16b-\Jk	.	.	.	.	.	.	.	.	.	.	.	.	.	.	16b-\Jk	.	16b-\Jk	.
=47	=47	=47	=47	=47	=47	=47	=47	=47	=47	=47	=47	=47	=47	=47	=47	=47	=47	=47	=47	=47	=47	=47
!	!	!	!	!	!	!	!	!	!	!	!	!	!	!	!	!	!	!	!LO:LB:g=original	!	!	!
4.F\	.	4.a-/	.	4.dd\	.	1r	.	.	1r	.	.	1r	.	.	4.B-/	.	4.f\	.	4.a-\	.	4.dd\	.
8F\	.	8a-/	.	8dd\	.	.	.	.	.	.	.	.	.	.	8B-/	.	8f\	.	8a-\	.	8dd\	.
8F\L	.	8a-\L	.	4.dd\	.	.	.	.	.	.	.	.	.	.	4.B-/	.	4.f\	.	8a-\L	.	4.dd\	.
8A-\	.	8cc-X\	.	.	.	.	.	.	.	.	.	.	.	.	.	.	.	.	8cc-X\	.	.	.
8G-X\	.	8b-\	.	.	.	.	.	.	.	.	.	.	.	.	.	.	.	.	8b-\	.	.	.
8F\J	.	8a-\J	.	8dd\	.	.	.	.	.	.	.	.	.	.	8B-/	.	8f\	.	8a-\J	.	8dd\	.
=48	=48	=48	=48	=48	=48	=48	=48	=48	=48	=48	=48	=48	=48	=48	=48	=48	=48	=48	=48	=48	=48	=48
8.F\L	.	8.a-/L	.	(8.dd\L	.	1r	.	.	1r	.	.	1r	.	.	(8B-\L	.	(8f\L	.	8.a-/L	.	(8.dd\L	.
.	.	.	.	.	.	.	.	.	.	.	.	.	.	.	8e-\J)	.	8g-X\J	.	.	.	.	.
16E-\Jk	.	16g-X/Jk	.	16ee-\Jk	.	.	.	.	.	.	.	.	.	.	.	.	.	.	16g-X/Jk	.	16ee-\Jk)	.
4E-\	.	4g-/	.	4ee-\)	.	.	.	.	.	.	.	.	.	.	4e-\	.	4g-\)	.	4g-/	.	4ee-\	.
2r	.	2r	.	8r	.	.	.	.	.	.	.	.	.	.	2r	.	2r	.	2r	.	8r	.
.	.	.	.	16qqf/L	.	.	.	.	.	.	.	.	.	.	.	.	.	.	.	.	16qqff/L	.
.	.	.	.	16qqe-/	.	.	.	.	.	.	.	.	.	.	.	.	.	.	.	.	16qqee-/	.
.	.	.	.	16qqd/J	.	.	.	.	.	.	.	.	.	.	.	.	.	.	.	.	16qqdd/J	.
.	.	.	.	8e-/L	.	.	.	.	.	.	.	.	.	.	.	.	.	.	.	.	8ee-\L	.
.	.	.	.	8g-X/	.	.	.	.	.	.	.	.	.	.	.	.	.	.	.	.	8gg-X\	.
.	.	.	.	8b-/J	.	.	.	.	.	.	.	.	.	.	.	.	.	.	.	.	8bb-\J	.
=49	=49	=49	=49	=49	=49	=49	=49	=49	=49	=49	=49	=49	=49	=49	=49	=49	=49	=49	=49	=49	=49	=49
!	!	!	!	!	!	!	!	!	!	!	!	!	!	!	!	!	!	!	!	!	!LO:LB:g=original	!
4.C-X/	.	4.e-/	.	4.an/	.	1r	.	.	1r	.	.	1r	.	.	4.f\	.	4.f\	.	4.ee-\	.	4.aa\	.
8C-/	.	8e-/	.	8a/	.	.	.	.	.	.	.	.	.	.	8f\	.	8f\	.	8ee-\	.	8aa\	.
4.C-/	.	8e-/L	.	4.a/	.	.	.	.	.	.	.	.	.	.	4.f\	.	4.f\	.	8ee-\L	.	4.aa\	.
.	.	8g-X/	.	.	.	.	.	.	.	.	.	.	.	.	.	.	.	.	8gg-X\	.	.	.
.	.	8f/	.	.	.	.	.	.	.	.	.	.	.	.	.	.	.	.	8ff\	.	.	.
8C-/	.	8e-/J	.	8a/	.	.	.	.	.	.	.	.	.	.	8f\	.	8f\	.	8ee-\J	.	8aa\	.
=50	=50	=50	=50	=50	=50	=50	=50	=50	=50	=50	=50	=50	=50	=50	=50	=50	=50	=50	=50	=50	=50	=50
!LO:LB:g=original	!	!LO:LB:g=original	!	!LO:LB:g=original	!	!	!	!	!	!	!	!	!	!	!	!	!	!	!	!	!	!
2BB-/	.	2.B-/ 2.d	.	2.b-;\	.	1r	.	.	1r	.	.	1r	.	.	2.B-/	.	2.f\	.	2.dd\	.	2.bb-\	.
4B-\	.	.	.	.	.	.	.	.	.	.	.	.	.	.	.	.	.	.	.	.	.	.
4A-X\	.	4r	.	4r	.	.	.	.	.	.	.	.	.	.	4r	.	4r	.	4r	.	4r	.
=51	=51	=51	=51	=51	=51	=51	=51	=51	=51	=51	=51	=51	=51	=51	=51	=51	=51	=51	=51	=51	=51	=51
!	!	!	!	!	!	!	!	!	!	!	!	!	!	!	!LO:LB:g=original	!	!	!	!	!	!	!
4G\	.	4d/	.	4.b-\	.	1r	.	.	1r	.	.	1r	.	.	4E-/	.	4e-\	.	4dd\	.	4.bb-\	.
4F\	.	4d-X/	.	.	.	.	.	.	.	.	.	.	.	.	4r	.	4r	.	4dd-X\	.	.	.
.	.	.	.	8bn\	.	.	.	.	.	.	.	.	.	.	.	.	.	.	.	.	8bbX\	.
8En\L	.	4c/	.	4cc\	.	.	.	.	.	.	.	.	.	.	4E-/	.	4e-\	.	4cc\	.	4ccc\	.
8G\	.	.	.	.	.	.	.	.	.	.	.	.	.	.	.	.	.	.	.	.	.	.
8c\	.	4c/	.	4g/	.	.	.	.	.	.	.	.	.	.	4E-/	.	4e-\	.	4cc\	.	4gg\	.
8C\J	.	.	.	.	.	.	.	.	.	.	.	.	.	.	.	.	.	.	.	.	.	.
=52	=52	=52	=52	=52	=52	=52	=52	=52	=52	=52	=52	=52	=52	=52	=52	=52	=52	=52	=52	=52	=52	=52
4F\	.	4c/	.	4a-/	.	1r	.	.	1r	.	.	1r	.	.	4E-/	.	4e-\	.	4cc\	.	4aa-\	.
4E-X\	.	4c-X/	.	8a-/L	.	.	.	.	.	.	.	.	.	.	4E-/	.	4e-\	.	4cc-X\	.	8aa-\L	.
.	.	.	.	8an/J	.	.	.	.	.	.	.	.	.	.	.	.	.	.	.	.	8aa\J	.
8D\L	.	4B-/	.	4b-\	.	.	.	.	.	.	.	.	.	.	4B-/	.	4f\	.	4b-\	.	4bb-\	.
8F\	.	.	.	.	.	.	.	.	.	.	.	.	.	.	.	.	.	.	.	.	.	.
8B-\	.	4f/	.	4dd\	.	.	.	.	.	.	.	.	.	.	4B-/	.	4f\	.	4f/	.	4dd\	.
8A-\J	.	.	.	.	.	.	.	.	.	.	.	.	.	.	.	.	.	.	.	.	.	.
=53	=53	=53	=53	=53	=53	=53	=53	=53	=53	=53	=53	=53	=53	=53	=53	=53	=53	=53	=53	=53	=53	=53
!LO:TX:a:t=problem:mixed beam	!	!	!	!	!	!	!	!	!	!	!	!	!	!	!	!	!	!	!	!	!	!
8G`\L	.	8g/L	.	8ee-\L	.	1r	.	.	1r	.	.	1r	.	.	4G/	.	4e-\	.	8g/L	.	8ee-`\L	.
8F`\	.	8a-/	.	8cc\	.	.	.	.	.	.	.	.	.	.	.	.	.	.	8a-/	.	8cc`\	.
8A-`\	.	8f/	.	8a-\	.	.	.	.	.	.	.	.	.	.	4B-/	.	4f\	.	8f/	.	8aa-`\	.
8AA-`/J	.	8A-/J	.	8f\J	.	.	.	.	.	.	.	.	.	.	.	.	.	.	8a-/J	.	8ff`\J	.
2BB-/	.	4G/	.	4Gm</ 4e-	.	.	.	.	.	.	.	.	.	.	4.e-\	.	4.g\	.	4g/	.	4ee-M\	.
.	.	4A-/ 4d	.	8g/L	.	.	.	.	.	.	.	.	.	.	.	.	.	.	4a-/	.	8gg\L	.
.	.	.	.	8f/J	.	.	.	.	.	.	.	.	.	.	8B-\	.	8f\	.	.	.	8ff\J	.
=54	=54	=54	=54	=54	=54	=54	=54	=54	=54	=54	=54	=54	=54	=54	=54	=54	=54	=54	=54	=54	=54	=54
!	!	!	!	!	!	!	!	!	!	!	!	!	!	!	!	!	!LO:LB:g=original	!	!LO:LB:g=original	!	!	!
(2BB-/	.	2A-/ 2d	.	2B-/ 2g	.	1r	.	.	1r	.	.	1r	.	.	2B-/	.	2f\	.	2a-\	.	2ff\	.
4E-\)	.	4G/ 4e-	.	4G/ 4e-	.	.	.	.	.	.	.	.	.	.	4G/	.	4e-\	.	4g\	.	4ee-\	.
4r	.	4r	.	4r	.	.	.	.	.	.	.	.	.	.	4r	.	4r	.	4r	.	4r	.
=55	=55	=55	=55	=55	=55	=55	=55	=55	=55	=55	=55	=55	=55	=55	=55	=55	=55	=55	=55	=55	=55	=55
!	!	!	!	!	!LO:DY:b	!	!	!	!	!	!	!	!	!	!	!	!	!	!	!	!	!LO:DY:t=ff:
1BB-;	.	1B-; 1a-	.	1f; 1dd	ff	1r;	.	.	1r;	.	.	1r;	.	.	1B-;	.	1f;	.	1a-;	.	1dd;	ff
=56	=56	=56	=56	=56	=56	=56	=56	=56	=56	=56	=56	=56	=56	=56	=56	=56	=56	=56	=56	=56	=56	=56
!LO:TX:a:t=Da Capo	!	!	!	!	!	!	!	!	!	!	!	!	!	!	!	!	!	!	!	!	!	!
1EE-;	.	1B-; 1g	.	1g; 1ee-	.	1r;	.	.	1r;	.	.	1r;	.	.	1G;	.	1e-;	.	1g;	.	1ee-;	.
==	==	==	==	==	==	==	==	==	==	==	==	==	==	==	==	==	==	==	==	==	==	==
*-	*-	*-	*-	*-	*-	*-	*-	*-	*-	*-	*-	*-	*-	*-	*-	*-	*-	*-	*-	*-	*-	*-
!!!system-decoration: g4,g3,g2,g1
!!!RDF**kern: <= below
!!!RDF**kern: >= above
!!!AIN: 2 bass 2 clars 2 cor 1 tenor 2 violn 1 vox
!!!ENC: Anna Matuszewska
!!!END: 2020-05-03
